X:1
T:Title
%%score 1 2
L:1/8
Q:1/4=109
M:4/4
K:F
V:1 treble nm="Grand Piano, Soprano"
V:2 bass nm="Choir Pad, Happy in the Love of Jesus"
V:1
 [FA]2 [Fc]2 [Fd]2 [Fc]2 | F2 [FB]2 [FA]4 | [EG][EG][EG][EG] [DF]2 [EG]2 | [FA]2 [Fc]6 | %4
w: By~Joseph~Lincoln~Hall * * *||||
 [FA]2 [Fc]2 [Fd]2 [Fc]2 | F2 [FB]2 [FA]4 | [Ec][EG][EG][FA] [EB]2 [CE]2 | [CG]2 [CF]6 | %8
w: ||||
 [Fd]4 [Ff]4 | [Ac]4 [FA]4 | [Ec][EG][EG][FA] [GB]4 | [Fd][Fc][Fc][FA] [Fc]4 | [Fd]4 [Ff]4 | %13
w: |||||
 [Ac]4 [FA]4 | [Ec][EG][EG][FA] [EB]2 [CE]2 | [CG]2 [CF]6- | [CF]2 z2 z4 |] %17
w: ||||
V:2
 [F,C]2 [F,A,]2 [F,B,]2 [F,A,]2 | [F,A,]2 [F,D]2 [F,C]4 | [C,C][C,C][C,C][C,C] [C,C]2 [C,C]2 | %3
 [F,C]2 [F,A,]6 | [F,C]2 [F,A,]2 [F,B,]2 [F,A,]2 | [F,A,]2 [F,D]2 [F,C]4 | %6
 [C,C][C,C][C,C][C,C] [C,G,]2 [C,B,]2 | [F,B,]2 [F,A,]6 | B,4 [B,D]4 | [F,F]4 [F,C]4 | %10
 [C,C][C,C][C,C][C,C] [C,C]4 | [F,B,][F,A,][F,A,][F,C] [F,A,]4 | B,4 [B,D]4 | [F,F]4 [F,C]4 | %14
 [C,C][C,C][C,C][C,C] [C,G,]2 [C,B,]2 | [F,B,]2 [F,A,]6- | [F,A,]2 z2 z4 |] %17

